X:1
T:Ochi Chornya
T:Ochi Chornya
C:Hungarian Folk Song
Z:All Rights Reserved
L:1/4
M:4/4
K:C
V:1 treble 
%%MIDI program 0
V:1
 z z _E =E |"Am" F2 E2 | z z _E =E | F2 E2 | z z E A |"Dm7" A2 _A2 | z z B B |"Am" B2 A2 | %8
 z z c c |"Dm7" c2 B2 | z z B B |"Am" B2 A2 | z z _E =E |"E7" F2 E2 | z z c B |"Am" (A3"Dm7" A) | %16
"Am" z z _E =E |] %17

